assets/svg/1F1F7-1F1FA.svg

<svg xmlns="http://www.w3.org/2000/svg" viewBox="0 0 64 64" enable-background="new 0 0 64 64"><path fill="#e6e7e8" d="m63.834 26.532v-5.564c0-4.533-3.07-8.207-6.861-8.207h-49.948c-3.787 0-6.859 3.674-6.859 8.207v5.564h63.67l0 0"/><path fill="#ec1c24" d="m.166 40.31v5.57c0 4.529 3.07 8.205 6.861 8.205h49.946c3.787 0 6.859-3.676 6.859-8.205v-5.57h-63.67"/><path fill="#1b75bb" d="m.166 26.532h63.67v13.774h-63.67z"/><path fill="#176496" d="m.166 26.532h19.02v13.774h-19.02z"/><path fill="#c32129" d="m19.18 40.31h-19.02v5.57c0 4.529 3.07 8.205 6.861 8.205h12.153l.002-13.775 0 0"/><path fill="#cececd" d="m19.357 26.532h-19.02v-5.564c0-4.533 3.071-8.207 6.863-8.207h12.152v13.771"/></svg>

<?xml version="1.0" encoding="UTF-8" standalone="no"?>
<!-- Generator: Adobe Illustrator 16.0.0, SVG Export Plug-In . SVG Version: 6.00 Build 0)  -->

<svg
   xmlns:dc="http://purl.org/dc/elements/1.1/"
   xmlns:cc="http://creativecommons.org/ns#"
   xmlns:rdf="http://www.w3.org/1999/02/22-rdf-syntax-ns#"
   xmlns:svg="http://www.w3.org/2000/svg"
   xmlns="http://www.w3.org/2000/svg"
   xmlns:sodipodi="http://sodipodi.sourceforge.net/DTD/sodipodi-0.dtd"
   xmlns:inkscape="http://www.inkscape.org/namespaces/inkscape"
   version="1.1"
   id="Layer_1"
   x="0px"
   y="0px"
   width="64px"
   height="64px"
   viewBox="0 0 64 64"
   enable-background="new 0 0 64 64"
   xml:space="preserve"
   inkscape:version="0.48.5 r10040"
   sodipodi:docname="1F1F7-1F1FA.svg"
   inkscape:export-filename="D:\TESTINGEMOJI\SVGTEST\1F1F7-1F1FA.png"
   inkscape:export-xdpi="90"
   inkscape:export-ydpi="90"><metadata
   id="metadata3797"><rdf:RDF><cc:Work
       rdf:about=""><dc:format>image/svg+xml</dc:format><dc:type
         rdf:resource="http://purl.org/dc/dcmitype/StillImage" /><dc:title></dc:title></cc:Work></rdf:RDF></metadata><defs
   id="defs3795" /><sodipodi:namedview
   pagecolor="#ffffff"
   bordercolor="#666666"
   borderopacity="1"
   objecttolerance="10"
   gridtolerance="10"
   guidetolerance="10"
   inkscape:pageopacity="0"
   inkscape:pageshadow="2"
   inkscape:window-width="640"
   inkscape:window-height="480"
   id="namedview3793"
   showgrid="false"
   inkscape:zoom="3.6875"
   inkscape:cx="32"
   inkscape:cy="32"
   inkscape:window-x="590"
   inkscape:window-y="283"
   inkscape:window-maximized="0"
   inkscape:current-layer="Layer_1" />
<g
   id="g3779">
	<path
   fill="#E6E7E8"
   d="M63.834,26.532v-5.564c0-4.533-3.07-8.207-6.861-8.207H7.025c-3.787,0-6.859,3.674-6.859,8.207v5.564   H63.834L63.834,26.532z"
   id="path3781" />
	<path
   fill="#EC1C24"
   d="M0.166,40.309v5.57c0,4.529,3.07,8.205,6.861,8.205h49.946c3.787,0,6.859-3.676,6.859-8.205v-5.57H0.166z"
   id="path3783" />
	<rect
   x="0.166"
   y="26.532"
   fill="#1B75BB"
   width="63.668"
   height="13.774"
   id="rect3785" />
	<rect
   x="0.166"
   y="26.532"
   fill="#176496"
   width="19.016"
   height="13.774"
   id="rect3787" />
	<path
   fill="#C32129"
   d="M19.182,40.309H0.166v5.57c0,4.529,3.07,8.205,6.861,8.205H19.18L19.182,40.309L19.182,40.309z"
   id="path3789" />
	<path
   fill="#CECECD"
   d="M19.357,26.532H0.342v-5.564c0-4.533,3.071-8.207,6.863-8.207h12.152V26.532z"
   id="path3791" />
</g>
</svg>
